X:3
T:Elterwater Hornpipe
Q:1/4=150
S:Greg Stephens Collection
L:1/8
K:G
Bc|dBGB dBGB|ecAc efge|dBGB dBGB|AFDF ABce|
dBGB dBGB|ecAc efge|dBGB cAFA|G2B2G2:|
|:ga|bgdg afdf|gece dBGB|cdef gdcB|B2A2A2ga|
bgdg afdf|gece dBGB|cedc BAGF|A2G2G2:|
%%vskip .5cm
